X: 3342
M: C
L: 1/8
K: G
(3(DEF) |\
bgdB gdBG | A^GAB A2(3(DEF) |\
[1 FAdf egec | d2f2d2 :|\
[2 bgdB gdBG | AGAB G2 |]
|: D2 |\
d'bgd Bdgb | a^gab a2D2 |\
d'bgd Bdgb | agab g2 :|


